fs/money_hand_24_filled.svg

<svg viewBox="0 0 24 24" fill="none" xmlns="http://www.w3.org/2000/svg" height="1em" width="1em">
  <path d="M6.24951 2C5.00687 2 3.99951 3.00736 3.99951 4.25V19.75C3.99951 20.9926 5.00687 22 6.24951 22H13.75C14.9855 22 15.9885 21.0041 15.9999 19.7712L16.0002 19.7501V18.2501C16.0002 17.8359 15.6644 17.5001 15.2502 17.5001C14.7963 17.5001 14.5108 17.378 14.3133 17.2193C14.1053 17.052 13.9338 16.794 13.8023 16.4301C13.5297 15.6751 13.5002 14.6796 13.5002 13.75C13.5001 13.5601 13.428 13.3772 13.2984 13.2384C13.2222 13.1566 13.1709 13.1012 13.134 13.0614C13.0436 12.9637 13.0394 12.9591 12.9635 12.8877C12.8896 12.8182 12.6639 12.6027 11.7805 11.7197C11.312 11.2514 11.0522 10.8551 10.9672 10.5524C10.9283 10.4137 10.9303 10.3102 10.9517 10.2269C10.9729 10.1443 11.0248 10.0358 11.1563 9.90425C11.2877 9.77277 11.396 9.72105 11.4781 9.70003C11.5609 9.67883 11.664 9.67686 11.8024 9.7159C12.1049 9.80123 12.5009 10.0615 12.9696 10.5305C13.5092 11.0704 14.022 11.5775 14.4813 12.0318C15.2408 12.7828 15.8549 13.3901 16.2019 13.7619C16.4845 14.0647 16.9591 14.081 17.2619 13.7984C17.5647 13.5158 17.5811 13.0412 17.2985 12.7384C17.014 12.4335 16.5566 11.9759 15.9997 11.424L15.9997 8.06031L18.841 10.9017C19.2629 11.3236 19.5 11.8959 19.5 12.4926V21.25C19.5 21.6642 19.8358 22 20.25 22C20.6642 22 21 21.6642 21 21.25V12.4926C21 11.4981 20.6049 10.5443 19.9017 9.84099L15.9996 5.93894L15.9996 4.24994C15.9995 3.00732 14.9922 2 13.7496 2H6.24951ZM13.3734 18.3882C13.6947 18.6466 14.0712 18.8266 14.4999 18.9216L14.4999 19H13.75C13.3358 19 13 19.3358 13 19.75V20.5H11.5V19.75C11.5 18.8566 12.0207 18.0848 12.7751 17.7216C12.9352 17.9665 13.1316 18.1939 13.3734 18.3882ZM12.0011 14.0459C12.003 14.2989 12.0086 14.5723 12.0238 14.8558C11.4524 15.2614 10.7541 15.4999 9.99996 15.4999C8.06697 15.4999 6.49996 13.9329 6.49996 11.9999C6.49996 10.0669 8.06697 8.49991 9.99996 8.49991C10.1606 8.49991 10.3186 8.51073 10.4735 8.53167C10.3402 8.62056 10.2141 8.72513 10.0955 8.84375C9.80312 9.13619 9.5962 9.47418 9.49872 9.85411C9.40141 10.2334 9.42494 10.6084 9.52305 10.9578C9.7121 11.6312 10.1883 12.2491 10.7201 12.7806C11.6033 13.6633 11.8434 13.8935 11.9358 13.9803C11.9415 13.9857 11.9458 13.9897 11.9491 13.9927C11.9526 13.9959 11.955 13.998 11.957 13.9997L11.9609 14.0032C11.9661 14.008 11.9709 14.0132 11.9971 14.0416L12.0011 14.0459ZM7 3.5H8.5V4.24951C8.5 5.49215 7.49264 6.49951 6.25 6.49951H5.49951V4.99951H6.25C6.66421 4.99951 7 4.66373 7 4.24951V3.5ZM11.5 3.5H13V4.24951C13 4.66373 13.3358 4.99951 13.75 4.99951H14.4996L14.4996 6.49951H13.75C12.5074 6.49951 11.5 5.49215 11.5 4.24951V3.5ZM8.5 20.5H7V19.75C7 19.3358 6.66421 19 6.25 19H5.49951V17.5H6.25C7.49264 17.5 8.5 18.5074 8.5 19.75V20.5Z" fill="#212121"/>
</svg>

<svg viewBox="0 0 24 24" fill="none" xmlns="http://www.w3.org/2000/svg" height="1em" width="1em">
  <path d="M6.25 2A2.25 2.25 0 0 0 4 4.25v15.5A2.25 2.25 0 0 0 6.25 22h7.5A2.25 2.25 0 0 0 16 19.771v-1.52a.75.75 0 0 0-.75-.75c-.454 0-.74-.123-.937-.282-.208-.167-.38-.425-.51-.789-.273-.755-.303-1.75-.303-2.68a.75.75 0 0 0-.202-.512l-.164-.177a2.587 2.587 0 0 0-.17-.173c-.074-.07-.3-.285-1.184-1.168-.468-.469-.728-.865-.813-1.168a.615.615 0 0 1-.015-.325.712.712 0 0 1 .204-.323.71.71 0 0 1 .322-.204.612.612 0 0 1 .324.016c.303.085.699.346 1.168.815.54.54 1.052 1.046 1.511 1.5.76.752 1.374 1.36 1.72 1.73a.75.75 0 0 0 1.098-1.023 55.227 55.227 0 0 0-1.3-1.314V8.06l2.842 2.842c.422.422.659.994.659 1.59v8.758a.75.75 0 0 0 1.5 0v-8.757a3.75 3.75 0 0 0-1.098-2.652L16 5.939v-1.69A2.25 2.25 0 0 0 13.75 2h-7.5Zm7.123 16.388a2.71 2.71 0 0 0 1.127.534V19h-.75a.75.75 0 0 0-.75.75v.75h-1.5v-.75c0-.893.52-1.665 1.275-2.028.16.244.357.472.598.666Zm-1.372-4.342c.002.253.008.526.023.81a3.5 3.5 0 1 1-1.55-6.324c-.134.089-.26.193-.379.312-.292.292-.499.63-.596 1.01-.098.38-.074.754.024 1.104.19.673.665 1.291 1.197 1.823A66.717 66.717 0 0 0 11.957 14l.004.003.036.039.004.004ZM7 3.5h1.5v.75A2.25 2.25 0 0 1 6.25 6.5H5.5V5h.75A.75.75 0 0 0 7 4.25V3.5Zm4.5 0H13v.75c0 .414.336.75.75.75h.75v1.5h-.75a2.25 2.25 0 0 1-2.25-2.25V3.5Zm-3 17H7v-.75a.75.75 0 0 0-.75-.75H5.5v-1.5h.75a2.25 2.25 0 0 1 2.25 2.25v.75Z" fill="#212121"/>
</svg>
